X:146
T:Dark Grounds
M:6/8
L:1/8
R:Jig
K:Em
B|e2e e2B|d2 B3 B|e2 e B2 (d|d3 d2) B|
e2 e e2B|d2 B e2 g|a_ba bab|1a2g e2d:|2a2g e2 g||
a (_b2 b3|b2)a g3|a2 _b a2 b|a2g e2 d|
e2 z z3|z3 z3|z ag ed(e|e3 e3):|
